storage/app/icons/phosphoricons/bold/swap-bold.svg

<svg xmlns="http://www.w3.org/2000/svg" fill="currentColor" viewBox="0 0 256 256"><path d="M228 48v104a20 20 0 0 1-20 20h-95.08a12 12 0 0 1-17.41 16.49l-20-20a12 12 0 0 1 0-17l20-20A12 12 0 0 1 112.92 148H204V52H100a12 12 0 0 1-24 0v-4a20 20 0 0 1 20-20h112a20 20 0 0 1 20 20m-60 144a12 12 0 0 0-12 12H52v-96h91.08a12 12 0 0 0 17.41 16.49l20-20a12 12 0 0 0 0-17l-20-20A12 12 0 0 0 143.08 84H48a20 20 0 0 0-20 20v104a20 20 0 0 0 20 20h112a20 20 0 0 0 20-20v-4a12 12 0 0 0-12-12"/></svg>

<svg xmlns="http://www.w3.org/2000/svg" viewBox="0 0 256 256" fill="currentColor"><path d="M228,48V152a20,20,0,0,1-20,20H112.92a12,12,0,0,1-17.41,16.49l-20-20a12,12,0,0,1,0-17l20-20A12,12,0,0,1,112.92,148H204V52H100a12,12,0,0,1-24,0V48A20,20,0,0,1,96,28H208A20,20,0,0,1,228,48ZM168,192a12,12,0,0,0-12,12H52V108h91.08a12,12,0,0,0,17.41,16.49l20-20a12,12,0,0,0,0-17l-20-20A12,12,0,0,0,143.08,84H48a20,20,0,0,0-20,20V208a20,20,0,0,0,20,20H160a20,20,0,0,0,20-20v-4A12,12,0,0,0,168,192Z"/></svg>
